icons/lines/zoom.svg

<svg xmlns="http://www.w3.org/2000/svg" width="24" height="24" viewBox="0 0 24 24" fill="none" stroke="currentColor" stroke-width="2" stroke-linecap="round" stroke-linejoin="round" >
  <path fill-rule="evenodd" clip-rule="evenodd" d="M6 9.7V12.5C6 14 7.3 15.3 8.8 15.3H12.5C13 15.3 13.4 14.9 13.4 14.4V11.6C13.4 10.1 12.2 8.8 10.6 8.8H6.9C6.4 8.8 6 9.2 6 9.7Z" stroke-miterlimit="10"/>
  <path fill-rule="evenodd" clip-rule="evenodd" d="M18.0002 9.2V14.8L15.2002 12.9V11.1L18.0002 9.2Z" stroke-miterlimit="10"/>
  <path d="M12 22C17.5228 22 22 17.5228 22 12C22 6.47715 17.5228 2 12 2C6.47715 2 2 6.47715 2 12C2 17.5228 6.47715 22 12 22Z" stroke-miterlimit="10"/>
  </svg>

<svg xmlns="http://www.w3.org/2000/svg" width="24" height="24" viewBox="0 0 24 24" fill="none" stroke="currentColor" stroke-width="2" stroke-linecap="round" stroke-linejoin="round">
  <path d="M18 9.2v5.6l-2.8-1.9v-1.8z" />
  <path d="M6 12.5c0 1.5 1.3 2.8 2.8 2.8h3.7a.896.896 0 0 0 .9-.9v-2.8a2.795 2.795 0 0 0-2.8-2.8H6.9a.896.896 0 0 0-.9.9z" />
  <circle cx="12" cy="12" r="10" />
</svg>
